images_elementary_svg/cmd/ru/lc_bold.svg

<svg height="24" width="24" xmlns="http://www.w3.org/2000/svg" xmlns:xlink="http://www.w3.org/1999/xlink"><radialGradient id="a" cx="11.904744" cy="4.36105" gradientTransform="matrix(.01593237 2.9166493 -2.3215578 .01268165 20.235017 -31.91211)" gradientUnits="userSpaceOnUse" r="6.758298"><stop offset="0" stop-color="#737373"/><stop offset=".26238" stop-color="#636363"/><stop offset=".704952" stop-color="#4b4b4b"/><stop offset="1" stop-color="#3f3f3f"/></radialGradient><radialGradient id="b" cx="40" cy="43.5" gradientTransform="matrix(1 0 0 .75 -25.767561 12.375)" gradientUnits="userSpaceOnUse" r="2" xlink:href="#f"/><radialGradient id="c" cx="9" cy="43.5" gradientTransform="matrix(1 0 0 .75 .479155 12.375)" gradientUnits="userSpaceOnUse" r="2" xlink:href="#f"/><radialGradient id="d" cx="40" cy="43.5" gradientTransform="matrix(1 0 0 .75 -26.446602 12.375)" gradientUnits="userSpaceOnUse" r="2" xlink:href="#f"/><linearGradient id="e" gradientTransform="matrix(.29101737 0 0 1 8.024068 0)" gradientUnits="userSpaceOnUse" x1="17" x2="17" y1="46.5" y2="43.5"><stop offset="0" stop-opacity="0"/><stop offset=".5"/><stop offset="1" stop-opacity="0"/></linearGradient><linearGradient id="f"><stop offset="0"/><stop offset="1" stop-opacity="0"/></linearGradient><g transform="matrix(.73633307 0 0 1 -5.507149 -24.5)"><path d="m13.553398 43.5v3h.5c.831 0 1.5-.669 1.5-1.5s-.669-1.5-1.5-1.5z" fill="url(#d)" opacity=".2"/><path d="m8.8854046 43.5c-.7790625 0-1.40625.627187-1.40625 1.40625v.1875c0 .779063.6271875 1.40625 1.40625 1.40625h.59375v-3z" fill="url(#c)" opacity=".2"/><path d="m9.4791546 43.5h4.0742434v3h-4.0742434z" fill="url(#e)" opacity=".2" stroke-width=".53946"/></g><g transform="matrix(.73633307 0 0 1 12.547519 -24.5)"><path d="m13.553398 43.5v3h.5c.831 0 1.5-.669 1.5-1.5s-.669-1.5-1.5-1.5z" fill="url(#d)" opacity=".2"/><path d="m8.8854046 43.5c-.7790625 0-1.40625.627187-1.40625 1.40625v.1875c0 .779063.6271875 1.40625 1.40625 1.40625h.59375v-3z" fill="url(#c)" opacity=".2"/><path d="m9.4791546 43.5h4.0742434v3h-4.0742434z" fill="url(#e)" opacity=".2" stroke-width=".53946"/></g><g transform="matrix(.73633307 0 0 1 3.270185 -24.5)"><path d="m14.232439 43.5v3h.5c.831 0 1.5-.669 1.5-1.5s-.669-1.5-1.5-1.5z" fill="url(#b)" opacity=".2"/><path d="m8.8854046 43.5c-.7790625 0-1.40625.627187-1.40625 1.40625v.1875c0 .779063.6271875 1.40625 1.40625 1.40625h.59375v-3z" fill="url(#c)" opacity=".2"/><path d="m9.4791546 43.5h4.7532844v3h-4.7532844z" fill="url(#e)" opacity=".2" stroke-width=".53946"/></g><path d="m7.1241752 12.182095-4.9250756-7.6831182h3.4913314l4.728072 7.7487852v-7.7487852h3.162993v7.7487852l4.728073-7.7487852h3.502276l-4.93602 7.6831182 5.242469 8.317905h-3.622667l-4.914131-8.109958v8.109958h-3.162993v-8.109958l-4.9031858 8.109958h-3.6336113z" fill="url(#a)" stroke="#000" stroke-opacity=".6"/><path d="m2.1992188 4.4980469.9609374 1.5h2.53125l4.3144528 7.0742191.41211-.681641v-.142578l-4.7265628-7.7500001zm8.2187502 0v1.5h3.164062v-1.5zm7.890625 0-4.726563 7.7500001v.142578l.41211.681641 4.314453-7.0742191h2.539062l.964844-1.5zm-11.6601565 8.4394531-4.7675781 7.5625h.9453125l4.2988281-6.818359zm10.7031245.001953-.476562.742188 4.298828 6.818359h.945313z" fill="#fff" opacity=".2"/></svg>

<?xml version="1.0" encoding="UTF-8" standalone="no"?>
<svg
   xmlns:dc="http://purl.org/dc/elements/1.1/"
   xmlns:cc="http://creativecommons.org/ns#"
   xmlns:rdf="http://www.w3.org/1999/02/22-rdf-syntax-ns#"
   xmlns:svg="http://www.w3.org/2000/svg"
   xmlns="http://www.w3.org/2000/svg"
   xmlns:xlink="http://www.w3.org/1999/xlink"
   xmlns:sodipodi="http://sodipodi.sourceforge.net/DTD/sodipodi-0.dtd"
   xmlns:inkscape="http://www.inkscape.org/namespaces/inkscape"
   height="24"
   width="24"
   version="1.1"
   id="svg39"
   sodipodi:docname="lc_bold.svg"
   inkscape:version="0.92.4 (unknown)"
   inkscape:export-filename="/home/rizmut/Dokumen/Rizmut/Github/libreoffice-style-elementary/images_elementary/cmd/ru/lc_bold.png"
   inkscape:export-xdpi="96"
   inkscape:export-ydpi="96">
  <metadata
     id="metadata45">
    <rdf:RDF>
      <cc:Work
         rdf:about="">
        <dc:format>image/svg+xml</dc:format>
        <dc:type
           rdf:resource="http://purl.org/dc/dcmitype/StillImage" />
        <dc:title></dc:title>
      </cc:Work>
    </rdf:RDF>
  </metadata>
  <defs
     id="defs43">
    <radialGradient
       inkscape:collect="always"
       xlink:href="#c"
       id="radialGradient884"
       cx="11.904744"
       cy="4.3610497"
       fx="11.904744"
       fy="4.3610497"
       r="6.7582979"
       gradientTransform="matrix(0.01593237,2.9166493,-2.3215578,0.01268165,20.235017,-31.91211)"
       gradientUnits="userSpaceOnUse" />
    <radialGradient
       id="d-0"
       cx="40"
       cy="43.5"
       gradientTransform="matrix(1,0,0,0.75,-25.767561,12.375)"
       gradientUnits="userSpaceOnUse"
       r="2"
       xlink:href="#a" />
    <linearGradient
       id="linearGradient1091">
      <stop
         offset="0"
         id="stop2-9" />
      <stop
         offset="1"
         stop-opacity="0"
         id="stop4-3" />
    </linearGradient>
    <radialGradient
       id="e-6"
       cx="9"
       cy="43.5"
       gradientTransform="matrix(1,0,0,0.75,0.47915456,12.375)"
       gradientUnits="userSpaceOnUse"
       r="2"
       xlink:href="#a" />
    <linearGradient
       id="b-0"
       gradientUnits="userSpaceOnUse"
       x1="17"
       x2="17"
       y1="46.5"
       y2="43.5"
       gradientTransform="matrix(0.29101737,0,0,1,8.0240678,0)">
      <stop
         offset="0"
         stop-opacity="0"
         id="stop7-6" />
      <stop
         offset=".5"
         id="stop9-2" />
      <stop
         offset="1"
         stop-opacity="0"
         id="stop11-6" />
    </linearGradient>
    <radialGradient
       inkscape:collect="always"
       xlink:href="#a"
       id="radialGradient1166"
       gradientUnits="userSpaceOnUse"
       gradientTransform="matrix(1,0,0,0.75,-26.446602,12.375)"
       cx="40"
       cy="43.5"
       r="2" />
    <radialGradient
       inkscape:collect="always"
       xlink:href="#a"
       id="radialGradient1168"
       gradientUnits="userSpaceOnUse"
       gradientTransform="matrix(1,0,0,0.75,0.47915456,12.375)"
       cx="9"
       cy="43.5"
       r="2" />
    <linearGradient
       inkscape:collect="always"
       xlink:href="#b-0"
       id="linearGradient1170"
       gradientUnits="userSpaceOnUse"
       gradientTransform="matrix(0.29101737,0,0,1,8.0240678,0)"
       x1="17"
       y1="46.5"
       x2="17"
       y2="43.5" />
    <linearGradient
       inkscape:collect="always"
       xlink:href="#b-0"
       id="linearGradient850"
       gradientUnits="userSpaceOnUse"
       gradientTransform="matrix(0.29101737,0,0,1,8.0240678,0)"
       x1="17"
       y1="46.5"
       x2="17"
       y2="43.5" />
    <radialGradient
       inkscape:collect="always"
       xlink:href="#a"
       id="radialGradient860"
       gradientUnits="userSpaceOnUse"
       gradientTransform="matrix(1,0,0,0.75,-26.446602,12.375)"
       cx="40"
       cy="43.5"
       r="2" />
    <radialGradient
       inkscape:collect="always"
       xlink:href="#a"
       id="radialGradient862"
       gradientUnits="userSpaceOnUse"
       gradientTransform="matrix(1,0,0,0.75,0.47915456,12.375)"
       cx="9"
       cy="43.5"
       r="2" />
    <linearGradient
       inkscape:collect="always"
       xlink:href="#b-0"
       id="linearGradient864"
       gradientUnits="userSpaceOnUse"
       gradientTransform="matrix(0.29101737,0,0,1,8.0240678,0)"
       x1="17"
       y1="46.5"
       x2="17"
       y2="43.5" />
  </defs>
  <sodipodi:namedview
     pagecolor="#ffffff"
     bordercolor="#666666"
     borderopacity="1"
     objecttolerance="10"
     gridtolerance="10"
     guidetolerance="10"
     inkscape:pageopacity="0"
     inkscape:pageshadow="2"
     inkscape:window-width="1366"
     inkscape:window-height="714"
     id="namedview41"
     showgrid="true"
     inkscape:snap-global="true"
     inkscape:zoom="22.627418"
     inkscape:cx="9.1293438"
     inkscape:cy="10.898604"
     inkscape:window-x="0"
     inkscape:window-y="28"
     inkscape:window-maximized="1"
     inkscape:current-layer="svg39">
    <inkscape:grid
       type="xygrid"
       id="grid852" />
  </sodipodi:namedview>
  <linearGradient
     id="a">
    <stop
       offset="0"
       id="stop2" />
    <stop
       offset="1"
       stop-opacity="0"
       id="stop4" />
  </linearGradient>
  <linearGradient
     id="b"
     gradientUnits="userSpaceOnUse"
     x1="17"
     x2="17"
     y1="46.5"
     y2="43.5">
    <stop
       offset="0"
       stop-opacity="0"
       id="stop7" />
    <stop
       offset=".5"
       id="stop9" />
    <stop
       offset="1"
       stop-opacity="0"
       id="stop11" />
  </linearGradient>
  <radialGradient
     id="c"
     cx="13.325464"
     cy="8.331412"
     gradientTransform="matrix(-3.7117719,0.11187051,-0.21033005,-6.7825606,47.356407,56.934853)"
     gradientUnits="userSpaceOnUse"
     r="5.349211">
    <stop
       offset="0"
       stop-color="#737373"
       id="stop14" />
    <stop
       offset=".26238"
       stop-color="#636363"
       id="stop16" />
    <stop
       offset=".704952"
       stop-color="#4b4b4b"
       id="stop18" />
    <stop
       offset="1"
       stop-color="#3f3f3f"
       id="stop20" />
  </radialGradient>
  <radialGradient
     id="d"
     cx="40"
     cy="43.5"
     gradientTransform="matrix(1,0,0,0.75,-32.283838,12.375)"
     gradientUnits="userSpaceOnUse"
     r="2"
     xlink:href="#a" />
  <radialGradient
     id="e"
     cx="9"
     cy="43.5"
     gradientTransform="matrix(1,0,0,0.75,-4,12.375)"
     gradientUnits="userSpaceOnUse"
     r="2"
     xlink:href="#a" />
  <g
     transform="matrix(0.73633307,0,0,1,-5.5071489,-24.5)"
     id="g858">
    <path
       style="opacity:0.2;fill:url(#radialGradient860)"
       inkscape:connector-curvature="0"
       d="m 13.553398,43.5 v 3 h 0.5 c 0.831,0 1.5,-0.669 1.5,-1.5 0,-0.831 -0.669,-1.5 -1.5,-1.5 z"
       id="path852" />
    <path
       style="opacity:0.2;fill:url(#radialGradient862)"
       inkscape:connector-curvature="0"
       d="m 8.8854046,43.5 c -0.7790625,0 -1.40625,0.627187 -1.40625,1.40625 v 0.1875 c 0,0.779063 0.6271875,1.40625 1.40625,1.40625 h 0.59375 v -3 z"
       id="path854" />
    <path
       style="opacity:0.2;fill:url(#linearGradient864);stroke-width:0.53946024"
       inkscape:connector-curvature="0"
       d="m 9.4791546,43.5 h 4.0742434 v 3 H 9.4791546 Z"
       id="path856" />
  </g>
  <g
     id="g1164"
     transform="matrix(0.73633307,0,0,1,12.547519,-24.5)">
    <path
       id="path1158"
       d="m 13.553398,43.5 v 3 h 0.5 c 0.831,0 1.5,-0.669 1.5,-1.5 0,-0.831 -0.669,-1.5 -1.5,-1.5 z"
       inkscape:connector-curvature="0"
       style="opacity:0.2;fill:url(#radialGradient1166)" />
    <path
       id="path1160"
       d="m 8.8854046,43.5 c -0.7790625,0 -1.40625,0.627187 -1.40625,1.40625 v 0.1875 c 0,0.779063 0.6271875,1.40625 1.40625,1.40625 h 0.59375 v -3 z"
       inkscape:connector-curvature="0"
       style="opacity:0.2;fill:url(#radialGradient1168)" />
    <path
       id="path1162"
       d="m 9.4791546,43.5 h 4.0742434 v 3 H 9.4791546 Z"
       inkscape:connector-curvature="0"
       style="opacity:0.2;fill:url(#linearGradient1170);stroke-width:0.53946024" />
  </g>
  <g
     transform="matrix(0.73633307,0,0,1,3.2701847,-24.5)"
     id="g31">
    <path
       style="opacity:0.2;fill:url(#d-0)"
       inkscape:connector-curvature="0"
       d="m 14.232439,43.5 v 3 h 0.5 c 0.831,0 1.5,-0.669 1.5,-1.5 0,-0.831 -0.669,-1.5 -1.5,-1.5 z"
       id="path25" />
    <path
       style="opacity:0.2;fill:url(#e-6)"
       inkscape:connector-curvature="0"
       d="m 8.8854046,43.5 c -0.7790625,0 -1.40625,0.627187 -1.40625,1.40625 v 0.1875 c 0,0.779063 0.6271875,1.40625 1.40625,1.40625 h 0.59375 v -3 z"
       id="path27" />
    <path
       style="opacity:0.2;fill:url(#linearGradient850);stroke-width:0.53946024"
       inkscape:connector-curvature="0"
       d="m 9.4791546,43.5 h 4.7532844 v 3 H 9.4791546 Z"
       id="path29"
       sodipodi:nodetypes="ccccc" />
  </g>
  <g
     aria-label="Ж"
     style="font-style:normal;font-weight:normal;font-size:22.41456604px;line-height:1.25;font-family:sans-serif;letter-spacing:0px;word-spacing:0px;fill:url(#radialGradient884);fill-opacity:1;stroke:#000000;stroke-width:1;stroke-miterlimit:4;stroke-dasharray:none;stroke-opacity:0.6"
     id="text856">
    <path
       d="M 7.1241752,12.182095 2.1990996,4.4989768 H 5.690431 l 4.728072,7.7487852 V 4.4989768 h 3.162993 v 7.7487852 l 4.728073,-7.7487852 h 3.502276 L 16.875825,12.182095 22.118294,20.5 H 18.495627 L 13.581496,12.390042 V 20.5 H 10.418503 V 12.390042 L 5.5153172,20.5 H 1.8817059 Z"
       style="font-style:normal;font-variant:normal;font-weight:bold;font-stretch:normal;font-family:'Droid Sans';-inkscape-font-specification:'Droid Sans Bold';fill:url(#radialGradient884);fill-opacity:1;stroke:#000000;stroke-width:1;stroke-miterlimit:4;stroke-dasharray:none;stroke-opacity:0.6"
       id="path894" />
  </g>
  <path
     style="font-style:normal;font-weight:normal;font-size:22.41456604px;line-height:1.25;font-family:sans-serif;letter-spacing:0px;word-spacing:0px;fill:#ffffff;fill-opacity:1;stroke:none;stroke-width:1;stroke-miterlimit:4;stroke-dasharray:none;stroke-opacity:0.6;opacity:0.2"
     d="M 2.1992188 4.4980469 L 3.1601562 5.9980469 L 5.6914062 5.9980469 L 10.005859 13.072266 L 10.417969 12.390625 L 10.417969 12.248047 L 5.6914062 4.4980469 L 2.1992188 4.4980469 z M 10.417969 4.4980469 L 10.417969 5.9980469 L 13.582031 5.9980469 L 13.582031 4.4980469 L 10.417969 4.4980469 z M 18.308594 4.4980469 L 13.582031 12.248047 L 13.582031 12.390625 L 13.994141 13.072266 L 18.308594 5.9980469 L 20.847656 5.9980469 L 21.8125 4.4980469 L 18.308594 4.4980469 z M 6.6484375 12.9375 L 1.8808594 20.5 L 2.8261719 20.5 L 7.125 13.681641 L 6.6484375 12.9375 z M 17.351562 12.939453 L 16.875 13.681641 L 21.173828 20.5 L 22.119141 20.5 L 17.351562 12.939453 z "
     id="text868" />
</svg>
